X: 48
T: Piano Sonata No. 11 in A major, K 331 (300i), mvmt. 1f
C: Wolfgang Amadeus Mozart
%%abc-version 2.0
%%abcx-abcm2ps-target-version 5.9.1 (29 Sep 2008)
%%abc-creator hum2abc beta
%%abcx-conversion-date 2021/01/14 17:01:33
%%abc-copyright 2018 Craig Stuart Sapp
%%abc-edited-by Craig Stuart Sapp
%%abc-edited-by Craig Stuart Sapp
%%abcx-initial-encoding-date 2009/09/29
%%gracespace 0 6 6
%%humdrum-veritas 1443117642
%%humdrum-veritas-data 2087993280
%%linebreak <none>
%%barnumbers 0
L: 1/16
M: 6/8
N: Derived from sonata11-1f.krn
Q: "Variation V: Adagio" 1/8=104
%%staves {1 2}
V: 1 clef=treble
V: 2 clef=bass
K: A
[V:1] c2c2>d2 fe z .e f/e/d/c/ | 
[V:2] A,/E/C/E/ A,/E/C/E/ A,/E/B,/E/ C/E/A,/E/ C/E/A,/E/ C/E/A,/E/ | 
[V:1] cB2< B2c e2=d z/ .d/ e/d/c/B/ | 
[V:2] G,/E/^D/E/ G,/E/D/E/ G,/E/A,/E/ ^A,/E/^D/E/ B,/E/D/E/ G,/E/E,/E/ | 
[V:1] BA z/ A/G/A/ B/A/=d/c/ ^AB z/ B/A/B/ c/B/e/=d/ | 
[V:2] F,/E/^D/E/ F,2 z2 G,/E/^D/E/ G,2 z2 | 
[V:1] d/c/^B/c/ d/c/B/c/ e/d/c/d/ c/=B/^A/B/ =A/G/^^F/G/ ^F/E/^D/E/ | 
[V:2] [A,2E2][F,2A,2][D,2B,2] [E,2G,2] z2 z2 | 
[V:1] .[Ac][A2c2] [^Ac][Bd][^B^d] [c/e/].=A/.=B/.c/ .=d/.e/.f/.g/ a/b/c'/ z/ | 
[V:2] A,,/A,/A,/A,/ A,/A,/A,/A,/ A,/A,/A,/A,/ A,2 z2 z2 | 
[V:1] [A/c/][G/B/][G2B2] [GB][A=c][^A^c] [B/d/].B/.c/.d/ .e/.f/.g/.=a/ b/c'/d'/ z/ | 
[V:2] E,,/E,/E,/E,/ E,/E,/E,/E,/ E,/E,/E,/E,/ E,2 z2 z2 | 
[V:1] B/A/A- A/A/d/c/ ^A/B/e/d/ ^B/c/.=a/.a/ .a/.a/.a/.a/ a/f/d/=B/ |[1 
[V:2] z2 [F,2E2][G,2E2] [A,2E2] z2 [D,2F,2B,2] | 
[V:1] x2 A3c/B/ [G2B2]Az/>E/ F//A//G//B// A//c//B//=d// & !turn!e>f A2>G2E4x2 :|][2 
[V:2] [A,4C4][B,2D2] D2C2 z2 & E,6A,4x2 :|]  
[V:1] x2 A3c/B/ B2!turn!A>B!turn!c3/d/ & !turn!e>f A2>G2[E4G4]x2 ]|: 
[V:2] [A,4C4][B,2D2] D2C2 z2 & E,6A,4x2 ]|:  
[V:1] e3/f//e// d.c.B.A A>ff2 D2- | 
[V:2] [K:clef=treble]A,/A/C/A/ A,/G/B,/G/ A,/=G/C/G/ A,/F/D/F/[K:clef=bass] F,/D/A,/D/ D,/A,/F,/A,/ | 
[V:1] D//F//E//D// E//F//=G//A// B//c//d//e// (3f/.=g/.a/ .b/.c'/.d'/>f/ a>fe.e.e.e | 
[V:2] A,,/F,/D,/F,/ A,,/F,/D,/F,/ A,,/F,/D,/F,/ D,2C,2 z2 & x4x2 A,,2A,,2 x2 | 
[V:1] f/e/c/B/ A.e.e.e f/e/d/B/ G.e.e.e | 
[V:2] [A,6C6E6][B,6D6E6] | 
[V:1] f/e/c/A/ f/e/d/B/ f/e/c/A/ c2B/E/e/E/ ^d/E/=d/E/ | 
[V:2] x4>[A,4C4][G,2B,2] z2 & [A,2C2E2][G,2B,2E2][A,2C2E2]E,4x2 | 
[V:1] c2c2-c/(3d//c//B// c/d/ fe/ z/ ^d'e'/ z// .e// f/e/d/c/ | 
[V:2] A,/E/C/E/ A,/E/C/E/ A,/E/B,/E/ C/E/A,/E/ C/E/A,/E/ C/E/A,/E/ | 
[V:1] cB2B2{/c/B/^A/}B/c/ e=d/ z/ c'd'/ z// .d// e/d/c/B/ | 
[V:2] G,/E/^D/E/ G,/E/D/E/ G,/E/A,/E/ B,/E/^D/E/ G,/E/B,/E/ E,/E/G,/E/ | 
[V:1] B=A- A/A/=d/c/ ^A/B/e/d/ ^B/c/.=a/.a/ .a/.a/.a/.a/ a/f/d/=B/ | 
[V:2] F,/E/^D/E/ F,/E/D/E/ G,/E/D/E/ A,2 z2 [=D,2F,2B,2] | 
[V:1] e{/f/e/^d/}e/f/ A2>B2 B2>^B2c2 & x2 A2>G2G4A2 | 
[V:2] [A,4C4][B,2D2]D4C2 & E,6[A,6E6] | 
[V:1] {/E/A/} c2-(3:2:12c/e/d/ c/d/e/ d/f/e/ d/e/f/ e//A//B//c// d//e//f//g// a//b//c'//b// a//g//f//^e// f//g//a//g// b//a//g//f// |[1 
[V:2] A,,/C,/E,/A,/ A,,/C,/E,/A,/ B,,/D,/G,/B,/[C,4A,4][D,2A,2] | 
[V:1] .=e/e'/c'/a/ .e/a/e/c/ e/d/c/B/ [G2B2](3:2:12A/.E/.F/ .=G/.^G/A/ .^A/.B/.^B/ .c/.d/.^d/ :|][2 
[V:2] x4>D4C2 z2 & [E,2C2][E,2C2][E,2G,2D2]A,4x2 :|]  
[V:1] .=e/e'/c'/a/ .e/a/e/c/ e/d/c/B/[G4B4]A2 & x6E6 |]  
[V:2] x6D4C2 & [E,2C2][E,2C2][E,2G,2D2]A,6 |]  


